X:5468
T:Red-haired Hag, The
O:england
R:double jig
M:6/8
L:1/8
K:D
|:f|ecA aeA|cde gfg|BGG dGG|Bcd dcd|
ecA aeA|cde fga|def gdB|ecA A2:|
e|agf ecA|cde fga|BGB dBG|Bcd dcd|
agf ecA|cde a^ga|def gdB|ecA A2:|


